X: 1
T: Ballycarbery, The
M: 4/4
L: 1/8
R: reel
K: Dmaj
FABA FABA | FABA FAE2 | FABA FAdA | FABA FED2 |
FAdA FAeA | FAdA FAE2 | FAdA FAeA | FAfA FAD2 :|
dfff dfff | dfff g2fg | agfg agfg | agef d4 |
dfff dfff | dfff e2de | feBA AAFG | AGEF D4 :|
